public/company3.svg

<svg width="175" height="44" viewBox="0 0 175 44" fill="none" xmlns="http://www.w3.org/2000/svg">
<path opacity="0.8" d="M32.5098 10.7035C32.1294 10.3231 31.7491 9.94279 31.3687 9.56244C30.2277 8.34531 29.0105 7.12818 27.4891 6.36747C25.7395 5.45462 23.8377 5.68283 21.936 5.68283C19.0453 5.68283 11.8186 5.68283 7.55859 5.68283L10.4493 9.56244C15.6982 9.56244 23.9138 9.56244 27.7173 9.56244C29.3148 9.56244 30.6841 9.86672 31.9773 10.7035C32.2055 10.7796 32.4337 10.7796 32.5098 10.7035Z" fill="white"/>
<path opacity="0.9" d="M35.7048 16.9413C35.3244 16.5609 34.9441 16.1806 34.5637 15.8002C33.4227 14.5831 32.2055 13.366 30.6841 12.6053C28.9345 11.6924 27.0327 11.9206 25.131 11.9206C22.6206 11.9206 16.611 11.9206 12.3511 11.9206L15.2418 15.8002C20.4146 15.8002 27.4892 15.8002 30.9884 15.8002C32.5859 15.8002 33.9552 16.1045 35.2484 16.9413C35.4005 17.0174 35.5526 17.0174 35.7048 16.9413Z" fill="white"/>
<path d="M39.2799 23.0267C38.8996 22.6464 38.5192 22.266 38.1389 21.8857C36.9978 20.6686 35.7807 19.4514 34.2593 18.6907C32.5096 17.7779 30.6079 18.0061 28.7061 18.0061C26.3479 18.0061 21.1751 18.0061 16.9912 18.0061L19.8819 21.8857C24.9026 21.8857 31.2925 21.8857 34.4875 21.8857C36.085 21.8857 37.4542 22.19 38.7474 23.0267C38.9756 23.1028 39.1278 23.1789 39.2799 23.0267Z" fill="white"/>
<path opacity="0.8" d="M7.25439 33.2963C7.63475 33.6767 8.0151 34.057 8.39546 34.4374C9.53652 35.6545 10.7536 36.8716 12.2751 37.6323C14.0247 38.5452 15.9265 38.317 17.8282 38.317H32.2056L29.3149 34.4374C24.066 34.4374 15.8504 34.4374 12.0469 34.4374C10.4494 34.4374 9.08009 34.1331 7.78689 33.2963C7.55868 33.2202 7.40654 33.2202 7.25439 33.2963Z" fill="white"/>
<path opacity="0.9" d="M4.05957 27.0588C4.43992 27.4391 4.82028 27.8195 5.20063 28.1998C6.34169 29.417 7.55882 30.6341 9.08023 31.3948C10.8299 32.3077 12.7316 32.0794 14.6334 32.0794H27.4133L24.5226 28.1998C19.3498 28.1998 12.2752 28.1998 8.77595 28.1998C7.17847 28.1998 5.80919 27.8955 4.51599 27.0588C4.36385 26.9827 4.21171 26.9827 4.05957 27.0588Z" fill="white"/>
<path d="M0.560059 20.8969C0.940412 21.2773 1.32077 21.6576 1.70112 22.038C2.84218 23.2551 4.05932 24.4722 5.58073 25.2329C7.33036 26.1458 9.23212 25.9176 11.1339 25.9176H22.8488L19.9581 22.038C14.9374 22.038 8.54749 22.038 5.35252 22.038C3.75503 22.038 2.38575 21.7337 1.09255 20.8969C0.864339 20.8208 0.7122 20.8208 0.560059 20.8969Z" fill="white"/>
<path d="M48.02 13.207V30.8H51.8885V23.5312H59.2559V20.5251H51.8885V16.4595H60.3893V13.207H48.02Z" fill="white"/>
<path d="M70.0919 23.063H64.4C64.4165 22.8166 64.4657 22.5374 64.5479 22.2253C64.6464 21.9132 64.8025 21.6175 65.016 21.3382C65.246 21.059 65.5417 20.829 65.9031 20.6483C66.2809 20.4512 66.7491 20.3526 67.3076 20.3526C68.1617 20.3526 68.7942 20.5826 69.2048 21.0426C69.6319 21.5025 69.9276 22.176 70.0919 23.063ZM64.4 25.2806H73.5908C73.6565 24.295 73.5743 23.3505 73.3444 22.447C73.1144 21.5436 72.7366 20.7387 72.2109 20.0323C71.7017 19.326 71.0446 18.7675 70.2397 18.3568C69.4348 17.9297 68.4903 17.7162 67.4061 17.7162C66.4369 17.7162 65.5499 17.8886 64.745 18.2336C63.9565 18.5786 63.2748 19.0549 62.6999 19.6627C62.1249 20.2541 61.6814 20.9604 61.3693 21.7818C61.0572 22.6031 60.9012 23.4901 60.9012 24.4429C60.9012 25.4285 61.049 26.3319 61.3447 27.1533C61.6568 27.9746 62.0921 28.681 62.6506 29.2723C63.2091 29.8637 63.8908 30.3236 64.6957 30.6522C65.5006 30.9643 66.4041 31.1203 67.4061 31.1203C68.8517 31.1203 70.0837 30.7918 71.1021 30.1347C72.1206 29.4776 72.8762 28.3853 73.369 26.8576H70.289C70.174 27.2518 69.8619 27.6296 69.3527 27.991C68.8435 28.336 68.2357 28.5085 67.5293 28.5085C66.5437 28.5085 65.7881 28.2539 65.2624 27.7446C64.7368 27.2354 64.4493 26.4141 64.4 25.2806Z" fill="white"/>
<path d="M74.7789 21.9789C74.8281 21.1575 75.0335 20.4758 75.3949 19.9338C75.7563 19.3917 76.2162 18.9564 76.7747 18.6278C77.3332 18.2993 77.9574 18.0693 78.6474 17.9379C79.3537 17.7901 80.06 17.7162 80.7664 17.7162C81.407 17.7162 82.0559 17.7654 82.713 17.864C83.37 17.9461 83.9696 18.1186 84.5117 18.3814C85.0537 18.6443 85.4973 19.0139 85.8422 19.4902C86.1872 19.9502 86.3597 20.5662 86.3597 21.3382V27.9664C86.3597 28.5413 86.3925 29.0916 86.4582 29.6173C86.5239 30.1429 86.6389 30.5372 86.8032 30.8H83.255C83.1893 30.6029 83.1318 30.4058 83.0826 30.2086C83.0497 29.9951 83.0251 29.7815 83.0086 29.568C82.4501 30.1429 81.7931 30.5454 81.0374 30.7754C80.2818 31.0053 79.5098 31.1203 78.7213 31.1203C78.1135 31.1203 77.5468 31.0464 77.0211 30.8986C76.4955 30.7507 76.0355 30.5207 75.6413 30.2086C75.247 29.8965 74.9349 29.5023 74.7049 29.0259C74.4914 28.5495 74.3846 27.9828 74.3846 27.3258C74.3846 26.603 74.5078 26.0116 74.7542 25.5517C75.0171 25.0753 75.3456 24.6975 75.7398 24.4182C76.1505 24.139 76.6104 23.9336 77.1197 23.8022C77.6453 23.6544 78.171 23.5394 78.6966 23.4573C79.2223 23.3751 79.7397 23.3094 80.249 23.2602C80.7582 23.2109 81.2099 23.137 81.6042 23.0384C81.9984 22.9398 82.3105 22.8002 82.5405 22.6195C82.7704 22.4224 82.8772 22.1431 82.8608 21.7818C82.8608 21.4039 82.7951 21.1083 82.6637 20.8947C82.5487 20.6647 82.3844 20.4923 82.1709 20.3773C81.9738 20.2459 81.7356 20.1637 81.4563 20.1309C81.1935 20.0816 80.906 20.057 80.5939 20.057C79.904 20.057 79.3619 20.2048 78.9677 20.5005C78.5734 20.7962 78.3435 21.289 78.2778 21.9789H74.7789ZM82.8608 24.5661C82.7129 24.6975 82.524 24.8043 82.2941 24.8864C82.0805 24.9521 81.8423 25.0096 81.5795 25.0589C81.3331 25.1082 81.0703 25.1492 80.791 25.1821C80.5118 25.2149 80.2325 25.256 79.9533 25.3053C79.6904 25.3546 79.4276 25.4203 79.1648 25.5024C78.9184 25.5845 78.6966 25.6995 78.4995 25.8474C78.3188 25.9788 78.171 26.1512 78.056 26.3648C77.941 26.5783 77.8835 26.8494 77.8835 27.1779C77.8835 27.49 77.941 27.7528 78.056 27.9664C78.171 28.1799 78.327 28.3524 78.5241 28.4838C78.7213 28.5988 78.9512 28.681 79.2141 28.7302C79.4769 28.7795 79.7479 28.8042 80.0272 28.8042C80.7171 28.8042 81.251 28.6892 81.6288 28.4592C82.0066 28.2292 82.2859 27.9582 82.4666 27.6461C82.6472 27.3175 82.754 26.989 82.7869 26.6605C82.8362 26.3319 82.8608 26.0691 82.8608 25.872V24.5661Z" fill="white"/>
<path d="M92.7715 18.0611V14.2419H89.2726V18.0611H87.1535V20.4019H89.2726V27.9171C89.2726 28.5578 89.3794 29.0752 89.5929 29.4694C89.8064 29.8637 90.0939 30.1676 90.4553 30.3811C90.8331 30.5947 91.2602 30.7343 91.7366 30.8C92.2294 30.8821 92.7468 30.9232 93.2889 30.9232C93.6339 30.9232 93.987 30.915 94.3484 30.8986C94.7098 30.8821 95.0383 30.8493 95.334 30.8V28.0896C95.1698 28.1224 94.9973 28.1471 94.8166 28.1635C94.6359 28.1799 94.447 28.1882 94.2499 28.1882C93.6585 28.1882 93.2643 28.0896 93.0671 27.8925C92.87 27.6954 92.7715 27.3011 92.7715 26.7098V20.4019H95.334V18.0611H92.7715Z" fill="white"/>
<path d="M96.2596 13.207V30.8H99.7584V24.1226C99.7584 22.8248 99.972 21.8967 100.399 21.3382C100.826 20.7633 101.516 20.4758 102.469 20.4758C103.307 20.4758 103.89 20.7387 104.218 21.2643C104.547 21.7735 104.711 22.5538 104.711 23.6051V30.8H108.21V22.9645C108.21 22.176 108.136 21.4614 107.988 20.8208C107.857 20.1637 107.619 19.6134 107.274 19.1699C106.929 18.71 106.452 18.3568 105.845 18.1104C105.253 17.8476 104.489 17.7162 103.553 17.7162C102.896 17.7162 102.222 17.8886 101.533 18.2336C100.843 18.5621 100.276 19.096 99.8324 19.8352H99.7584V13.207H96.2596Z" fill="white"/>
<path d="M118.701 23.063H113.009C113.026 22.8166 113.075 22.5374 113.157 22.2253C113.256 21.9132 113.412 21.6175 113.625 21.3382C113.855 21.059 114.151 20.829 114.512 20.6483C114.89 20.4512 115.358 20.3526 115.917 20.3526C116.771 20.3526 117.403 20.5826 117.814 21.0426C118.241 21.5025 118.537 22.176 118.701 23.063ZM113.009 25.2806H122.2C122.266 24.295 122.183 23.3505 121.954 22.447C121.724 21.5436 121.346 20.7387 120.82 20.0323C120.311 19.326 119.654 18.7675 118.849 18.3568C118.044 17.9297 117.099 17.7162 116.015 17.7162C115.046 17.7162 114.159 17.8886 113.354 18.2336C112.566 18.5786 111.884 19.0549 111.309 19.6627C110.734 20.2541 110.291 20.9604 109.978 21.7818C109.666 22.6031 109.51 23.4901 109.51 24.4429C109.51 25.4285 109.658 26.3319 109.954 27.1533C110.266 27.9746 110.701 28.681 111.26 29.2723C111.818 29.8637 112.5 30.3236 113.305 30.6522C114.11 30.9643 115.013 31.1203 116.015 31.1203C117.461 31.1203 118.693 30.7918 119.711 30.1347C120.73 29.4776 121.485 28.3853 121.978 26.8576H118.898C118.783 27.2518 118.471 27.6296 117.962 27.991C117.453 28.336 116.845 28.5085 116.138 28.5085C115.153 28.5085 114.397 28.2539 113.872 27.7446C113.346 27.2354 113.058 26.4141 113.009 25.2806Z" fill="white"/>
<path d="M123.536 18.0611V30.8H127.035V25.0589C127.035 24.4839 127.092 23.9501 127.207 23.4573C127.322 22.9645 127.511 22.5374 127.774 22.176C128.053 21.7982 128.415 21.5025 128.858 21.289C129.302 21.0754 129.844 20.9686 130.484 20.9686C130.698 20.9686 130.92 20.9851 131.15 21.0179C131.38 21.0343 131.577 21.059 131.741 21.0918V17.8394C131.462 17.7572 131.207 17.7162 130.977 17.7162C130.534 17.7162 130.107 17.7819 129.696 17.9133C129.285 18.0447 128.899 18.2336 128.538 18.48C128.176 18.71 127.856 18.9974 127.577 19.3424C127.298 19.6709 127.076 20.0323 126.912 20.4266H126.862V18.0611H123.536Z" fill="white"/>
<path d="M136.612 27.5475V16.4595H139.371C140.324 16.4595 141.121 16.5991 141.761 16.8784C142.418 17.1412 142.944 17.5272 143.338 18.0365C143.733 18.5457 144.012 19.1617 144.176 19.8845C144.357 20.5908 144.447 21.3875 144.447 22.2746C144.447 23.2437 144.324 24.0651 144.078 24.7386C143.831 25.412 143.503 25.9623 143.092 26.3894C142.681 26.8001 142.213 27.0958 141.687 27.2765C141.162 27.4572 140.62 27.5475 140.061 27.5475H136.612ZM132.743 13.207V30.8H140.332C141.679 30.8 142.846 30.5782 143.831 30.1347C144.833 29.6748 145.663 29.0506 146.32 28.2621C146.993 27.4736 147.494 26.5373 147.823 25.4531C148.151 24.369 148.316 23.1862 148.316 21.905C148.316 20.443 148.11 19.1699 147.7 18.0858C147.305 17.0016 146.747 16.0981 146.024 15.3754C145.318 14.6526 144.472 14.1105 143.486 13.7491C142.517 13.3877 141.466 13.207 140.332 13.207H132.743Z" fill="white"/>
<path d="M158.472 23.063H152.781C152.797 22.8166 152.846 22.5374 152.928 22.2253C153.027 21.9132 153.183 21.6175 153.397 21.3382C153.627 21.059 153.922 20.829 154.284 20.6483C154.661 20.4512 155.13 20.3526 155.688 20.3526C156.542 20.3526 157.175 20.5826 157.585 21.0426C158.013 21.5025 158.308 22.176 158.472 23.063ZM152.781 25.2806H161.971C162.037 24.295 161.955 23.3505 161.725 22.447C161.495 21.5436 161.117 20.7387 160.592 20.0323C160.082 19.326 159.425 18.7675 158.62 18.3568C157.815 17.9297 156.871 17.7162 155.787 17.7162C154.818 17.7162 153.931 17.8886 153.126 18.2336C152.337 18.5786 151.655 19.0549 151.08 19.6627C150.506 20.2541 150.062 20.9604 149.75 21.7818C149.438 22.6031 149.282 23.4901 149.282 24.4429C149.282 25.4285 149.43 26.3319 149.725 27.1533C150.037 27.9746 150.473 28.681 151.031 29.2723C151.59 29.8637 152.271 30.3236 153.076 30.6522C153.881 30.9643 154.785 31.1203 155.787 31.1203C157.232 31.1203 158.464 30.7918 159.483 30.1347C160.501 29.4776 161.257 28.3853 161.75 26.8576H158.67C158.555 27.2518 158.243 27.6296 157.733 27.991C157.224 28.336 156.616 28.5085 155.91 28.5085C154.924 28.5085 154.169 28.2539 153.643 27.7446C153.117 27.2354 152.83 26.4141 152.781 25.2806Z" fill="white"/>
<path d="M170.354 30.8L174.666 18.0611H171.192L168.506 26.759H168.457L165.771 18.0611H162.1L166.461 30.8H170.354Z" fill="white"/>
</svg>

<svg xmlns="http://www.w3.org/2000/svg" width="175" height="44" fill="#fff" xmlns:v="https://vecta.io/nano"><path opacity=".8" d="M32.51 10.704l-1.141-1.141c-1.141-1.217-2.358-2.434-3.88-3.195-1.75-.913-3.651-.685-5.553-.685H7.559l2.891 3.88h17.268c1.598 0 2.967.304 4.26 1.141.228.076.456.076.532 0z"/><path opacity=".9" d="M35.705 16.941L34.564 15.8c-1.141-1.217-2.358-2.434-3.88-3.195-1.75-.913-3.651-.685-5.553-.685h-12.78l2.891 3.88h15.747c1.598 0 2.967.304 4.26 1.141.152.076.304.076.456 0z"/><path d="M39.28 23.027l-1.141-1.141c-1.141-1.217-2.358-2.434-3.88-3.195-1.75-.913-3.651-.685-5.553-.685H16.991l2.891 3.88h14.606c1.598 0 2.967.304 4.26 1.141.228.076.38.152.532 0z"/><path opacity=".8" d="M7.254 33.296l1.141 1.141c1.141 1.217 2.358 2.434 3.88 3.195 1.75.913 3.651.685 5.553.685h14.377l-2.891-3.88H12.047c-1.598 0-2.967-.304-4.26-1.141-.228-.076-.38-.076-.532 0z"/><path opacity=".9" d="M4.06 27.059L5.201 28.2c1.141 1.217 2.358 2.434 3.88 3.195 1.75.913 3.651.685 5.553.685h12.78l-2.891-3.88H8.776c-1.597 0-2.967-.304-4.26-1.141-.152-.076-.304-.076-.456 0z"/><path d="M.56 20.897l1.141 1.141c1.141 1.217 2.358 2.434 3.88 3.195 1.75.913 3.651.685 5.553.685h11.715l-2.891-3.88H5.353c-1.597 0-2.967-.304-4.26-1.141-.228-.076-.38-.076-.532 0zm47.46-7.69V30.8h3.868v-7.269h7.367v-3.006h-7.367V16.46h8.501v-3.252H48.02zm22.072 9.856H64.4a4.5 4.5 0 0 1 .148-.838c.099-.312.255-.608.468-.887.23-.279.526-.509.887-.69.378-.197.846-.296 1.404-.296.854 0 1.487.23 1.897.69.427.46.723 1.133.887 2.02zM64.4 25.281h9.191c.066-.986-.017-1.93-.246-2.834a6.81 6.81 0 0 0-1.133-2.415 5.43 5.43 0 0 0-1.971-1.675c-.805-.427-1.749-.641-2.834-.641-.969 0-1.856.172-2.661.517-.789.345-1.47.821-2.045 1.429-.575.591-1.019 1.298-1.331 2.119s-.468 1.708-.468 2.661c0 .986.148 1.889.444 2.71a6.3 6.3 0 0 0 1.306 2.119c.559.591 1.24 1.051 2.045 1.38.805.312 1.708.468 2.71.468 1.446 0 2.678-.329 3.696-.986s1.774-1.749 2.267-3.277h-3.08c-.115.394-.427.772-.936 1.133-.509.345-1.117.518-1.823.518-.986 0-1.741-.255-2.267-.764s-.813-1.33-.862-2.464zm10.379-3.302c.049-.821.255-1.503.616-2.045a4.19 4.19 0 0 1 1.38-1.306c.559-.329 1.183-.559 1.873-.69a10.32 10.32 0 0 1 2.119-.222 13.06 13.06 0 0 1 1.947.148 5.72 5.72 0 0 1 1.799.517 3.5 3.5 0 0 1 1.331 1.109c.345.46.517 1.076.517 1.848v6.628a13.26 13.26 0 0 0 .099 1.651c.066.526.181.92.345 1.183h-3.548l-.172-.591-.074-.641a4.56 4.56 0 0 1-1.971 1.207c-.756.23-1.528.345-2.316.345a6.26 6.26 0 0 1-1.7-.222c-.526-.148-.986-.378-1.38-.69a3.33 3.33 0 0 1-.936-1.183c-.213-.476-.32-1.043-.32-1.7 0-.723.123-1.314.37-1.774.263-.476.591-.854.986-1.134a4.38 4.38 0 0 1 1.38-.616c.526-.148 1.051-.263 1.577-.345l1.552-.197c.509-.049.961-.123 1.355-.222s.706-.238.936-.419c.23-.197.337-.476.32-.838 0-.378-.066-.674-.197-.887-.115-.23-.279-.402-.493-.517a1.6 1.6 0 0 0-.715-.246 4.71 4.71 0 0 0-.862-.074c-.69 0-1.232.148-1.626.444s-.624.789-.69 1.478h-3.499zm8.082 2.587c-.148.131-.337.238-.567.32-.214.066-.452.123-.715.173l-.788.123-.838.123a6.92 6.92 0 0 0-.788.197 2.32 2.32 0 0 0-.665.345c-.181.131-.328.304-.444.517s-.172.485-.172.813c0 .312.058.575.172.788a1.42 1.42 0 0 0 .468.517 2.14 2.14 0 0 0 .69.246 4.4 4.4 0 0 0 .813.074c.69 0 1.224-.115 1.602-.345s.657-.501.838-.813c.181-.329.287-.657.32-.986.049-.329.074-.591.074-.788v-1.306zm9.911-6.505v-3.819h-3.499v3.819h-2.119v2.341h2.119v7.515c0 .641.107 1.158.32 1.552s.501.698.862.912c.378.214.805.353 1.281.419a9.44 9.44 0 0 0 1.552.123l1.06-.025c.361-.016.69-.049.986-.099v-2.71c-.164.033-.337.057-.517.074l-.567.025c-.591 0-.986-.099-1.183-.296s-.296-.591-.296-1.183v-6.308h2.563V18.06h-2.562zm3.488-4.854V30.8h3.499v-6.677c0-1.298.214-2.226.641-2.784.427-.575 1.117-.862 2.07-.862.838 0 1.421.263 1.749.788.329.509.493 1.29.493 2.341V30.8h3.499v-7.835c0-.789-.074-1.503-.222-2.144-.131-.657-.369-1.207-.714-1.651-.345-.46-.822-.813-1.429-1.059-.592-.263-1.356-.394-2.292-.394-.657 0-1.331.172-2.02.517-.69.329-1.257.862-1.701 1.602h-.074v-6.628H96.26zm22.441 9.856h-5.692c.017-.246.066-.526.148-.838a2.91 2.91 0 0 1 .468-.887c.23-.279.526-.509.887-.69.378-.197.846-.296 1.405-.296.854 0 1.486.23 1.897.69.427.46.723 1.133.887 2.02zm-5.692 2.218h9.191c.066-.986-.017-1.93-.246-2.834a6.81 6.81 0 0 0-1.134-2.415c-.509-.706-1.166-1.265-1.971-1.675-.805-.427-1.75-.641-2.834-.641-.969 0-1.856.172-2.661.517a6.21 6.21 0 0 0-2.045 1.429c-.575.591-1.018 1.298-1.331 2.119s-.468 1.708-.468 2.661c0 .986.148 1.889.444 2.71a6.3 6.3 0 0 0 1.306 2.119c.558.591 1.24 1.051 2.045 1.38.805.312 1.708.468 2.71.468 1.446 0 2.678-.329 3.696-.986s1.774-1.749 2.267-3.277h-3.08c-.115.394-.427.772-.936 1.133-.509.345-1.117.518-1.824.518-.985 0-1.741-.255-2.266-.764s-.814-1.33-.863-2.464zm10.527-7.22V30.8h3.499v-5.741a7.04 7.04 0 0 1 .172-1.602c.115-.493.304-.92.567-1.281.279-.378.641-.673 1.084-.887s.986-.32 1.626-.32a4.72 4.72 0 0 1 .666.049 4.69 4.69 0 0 1 .591.074V17.84c-.279-.082-.534-.123-.764-.123a4.18 4.18 0 0 0-1.281.197c-.411.131-.797.32-1.158.567-.362.23-.682.517-.961.862a4.09 4.09 0 0 0-.665 1.084h-.05v-2.366h-3.326zm13.076 9.487V16.46h2.759c.953 0 1.75.14 2.39.419.657.263 1.183.649 1.577 1.158s.674 1.125.838 1.848c.181.706.271 1.503.271 2.39 0 .969-.123 1.791-.369 2.464s-.575 1.224-.986 1.651c-.411.411-.879.706-1.405.887a4.96 4.96 0 0 1-1.626.271h-3.449zm-3.869-14.34V30.8h7.589c1.347 0 2.514-.222 3.499-.665 1.002-.46 1.832-1.084 2.489-1.873.673-.788 1.174-1.725 1.503-2.809s.493-2.267.493-3.548c0-1.462-.206-2.735-.616-3.819-.395-1.084-.953-1.988-1.676-2.71-.706-.723-1.552-1.265-2.538-1.626-.969-.361-2.02-.542-3.154-.542h-7.589zm25.729 9.855h-5.691a4.49 4.49 0 0 1 .147-.838 2.89 2.89 0 0 1 .469-.887c.23-.279.525-.509.887-.69.377-.197.846-.296 1.404-.296.854 0 1.487.23 1.897.69.428.46.723 1.133.887 2.02zm-5.691 2.218h9.19c.066-.986-.016-1.93-.246-2.834s-.608-1.708-1.133-2.415a5.44 5.44 0 0 0-1.972-1.675c-.805-.427-1.749-.641-2.833-.641-.969 0-1.856.172-2.661.517-.789.345-1.471.821-2.046 1.429-.574.591-1.018 1.298-1.33 2.119s-.468 1.708-.468 2.661c0 .986.148 1.889.443 2.71.312.821.748 1.528 1.306 2.119s1.24 1.051 2.045 1.38c.805.312 1.709.468 2.711.468 1.445 0 2.677-.329 3.696-.986s1.774-1.749 2.267-3.277h-3.08c-.115.394-.427.772-.937 1.133-.509.345-1.117.518-1.823.518-.986 0-1.741-.255-2.267-.764s-.813-1.33-.862-2.464zm17.573 5.519l4.312-12.739h-3.474l-2.686 8.698h-.049l-2.686-8.698H162.1l4.361 12.739h3.893z"/></svg>
